X:408
T:Punch for the Ladies
T:Shandon Bells, The
R:jig
Z:hn-jig-408
M:6/8
L:1/8
K:D
AFD DFA|ded cBA|BGE EFA|B2A Bcd|
AFD DFA|ded cBA|Bcd ecA|1 d3 dcB:|2 d3 d2e ||
|:f2d dcd|f2a afd|cAA eAA|cAc efg|
f2d dcd|faa afd|Bcd ecA|1 d3 d2e:|2 d3 dcB ||
P:variations
|:AFD DFA|ded cBA|BGE EFA|B2A B2d|
AFD DFA|ded cBA|Bcd ecA|1 dfe d2B:|2 dfe d2e ||
|:f2d ded|faa afd|cAA eAA|cAc efg|
f2d dcd|f2a afd|Bcd ecA|1 dfe d2e:|2 dfe d2B ||

